symbols/web/view_sidebar/materialsymbolsoutlined/view_sidebar_grad200fill1_40px.svg

<svg xmlns="http://www.w3.org/2000/svg" height="40" width="40"><path d="M30.458 12.917V5.833h7.084v7.084Zm0 10.666v-7.166h7.084v7.166Zm-28 10.584V5.833h24.5v28.334Zm28 0v-7.084h7.084v7.084Z"/></svg>

<svg xmlns="http://www.w3.org/2000/svg" height="40" width="40"><path d="M30.458 12.917V5.833H37.542V12.917ZM30.458 23.583V16.417H37.542V23.583ZM2.458 34.167V5.833H26.958V34.167ZM30.458 34.167V27.083H37.542V34.167Z"/></svg>
